X:162
T:Little Katie Taylor
R:reel
M:4/4
L:1/8
K:Dmaj
|:D2FA GEAG|FDFA d2fa|geag fddc|AB=cA EFGE|
D2FA GEAG|FDFA d2fa|geag fdd=c|(3ABA GE FDDz:|
|:fdfa g2ag|fdfa ga{b}ag|fd=cA G2FG|AB=cA dcAB|
~f3a ~g3z|fdfa ga{b}ag|fddc AB=cA|EFGE FDDz:|

